X:1789
T:Bonaparte's Retreat
T:Claoideaad Buonapart
C:"collected by Hartnett"
S:1789 O'Neill's Music of Ireland
B:O'Neill's 1789
Z:Transcribed by Robert Thorpe (thorpe@skep.com)
Z:ABCMUS 1.0
M:C|
K:Em
B,2|B,>EE>F G>FE>D|E>FA>B d>^cd>e|f>de>^c d>B=c>A|B>GA>F G>E=F>D|
B,>EE>F G>FE>D|E>FA>B d>^cd>e|f>ed>B A>FD>F|E2 E>F E2:|
B>^c|d>^cd>e d2 (3Bcd|e>^de>f e2 B>^c|d>^cd>e d2 B>=c|B>GA>F G>E E2|
d>^cd>e d2 (3Bcd|e>^de>f e2 e>f|g>fe>g f>e^d>f|e2 e>f e2 B>^c|
~g-fg>a g>fe>g|~f-ef>g f>ed>f|d>^cd>e d2 A>=c|B>AG>f G>E=F>D|
B,>EE>F G>FE>D|E>FA>B d>^cd>e|f>de>^c d>B=c>A|B>GA>F G>E =F>D|
B,>EE>F G>FE>D|E>FA>B d>^cd>e|f>ed>B A>FD>F|E2 E>F E2|]


